X:1
T:Green Bay, LMD
T:Green Bay, LMD
T:J. L. Hodges, 1922
T:Public Domain Courtesy of the Cyber Hymnal™
C:J. L. Hodges, 1922
Z:Public Domain
Z:Courtesy of the Cyber Hymnal™
%%score ( 1 2 ) ( 3 4 )
L:1/8
Q:1/4=87
M:3/4
K:Ab
V:1 treble 
V:2 treble 
V:3 bass 
V:4 bass 
V:1
 [CE][EA] [EA] | [EA]3 [EA] [EB][EA] | [Ec]3 [Ec] [Ec][DB] | [CA]3 [EA] [DF][DA] | %4
 [CE]3 [CE] [EA][EA] | [EA]3 [EA] [EB][EA] | [Ec]3 [Ec] [Ae][Ae] | [Ae]3 A [Gc][EB] | %8
 [EA]3 [Ec] [Ae][Ae] | [Ae]3 [Af] [Ac][Ac] | [Ac]3 [EA] [Ac][GB] | [FA]3 [EA] [DF][DA] | %12
 [CE]3 [Ec] [Ae][Ae] | [Ae]3 [Af] [Ac][Ac] | [Ac]3 [EA] [Ac][EA] | [Ae]3 A [Gc][EB] | [EA]3 |] %17
V:2
 x3 | x6 | x6 | x6 | x6 | x6 | x6 | x3 A x2 | x6 | x6 | x6 | x6 | x6 | x6 | x6 | x3 A x2 | x3 |] %17
V:3
 [A,,A,][A,,C] [A,,C] | [A,,C]3 [A,,C] [A,,C][A,,C] | [A,,A,]3 [A,,A,] [A,,A,][A,,A,] | %3
 [A,,E,]3 [C,A,] [D,A,][F,A,] | A,3 [A,,A,] [A,,C][A,,C] | [A,,C]3 [A,,C] [A,,C][A,,C] | %6
 [A,,A,]3 A, [A,C][A,C] | [A,C]3 [C,E] [E,E][E,D] | [A,,C]3 A, [A,C][A,C] | %9
 [A,C]3 [A,D] [A,E][A,E] | [A,E]3 [A,C] [A,E][E,D] | [F,C]3 [C,A,] [D,A,][F,A,] | %12
 A,3 A, [A,C][A,C] | [A,C]3 [A,D] [A,E][A,E] | [A,E]3 [A,C] [A,E][A,C] | [A,C]3 [C,E] [E,E][E,D] | %16
 [A,,C]3 |] %17
V:4
 x3 | x6 | x6 | x6 | A,3 x3 | x6 | x3 A, x2 | x6 | x3 A, x2 | x6 | x6 | x6 | A,3 A, x2 | x6 | x6 | %15
 x6 | x3 |] %17

